icons/glyphs/glyph-television.svg

<?xml version="1.0" encoding="UTF-8" standalone="no"?><svg height="22" viewBox="0 0 22 22" width="22" xmlns="http://www.w3.org/2000/svg"><sodipodi:namedview/><metadata><rdf:RDF><cc:Work><dc:format>image/svg+xml</dc:format><dc:type/><dc:title/></cc:Work></rdf:RDF></metadata><g transform="translate(-.552734 .627421)"><path d="m4.9609375-.61914062c-.318972-.01097-.6325434.0747529-.8964844.24804687-.722976.474439-.911217 1.46492185-.421875 2.21289065.343915.5245387.9490345.809834 1.5546875.7324219l2.1113282 3.2207031h-5.4882813c-.702573 0-1.26757813.5669581-1.26757812 1.2695312v13.0312499c0 .702573.56500512 1.269531 1.26757812 1.269531h19.4628905c.702573 0 1.269531-.566958 1.269531-1.269531v-13.0312499c0-.7025731-.566958-1.2695312-1.269531-1.2695312h-5.486328l2.109375-3.2207031c.606269.0781909 1.212399-.2072024 1.556641-.7324219.489006-.7484666.299829-1.73908165-.423829-2.21289065-.723862-.473312-1.707136-.24956013-2.197265.49804687-.342876.52483701-.361741 1.19286218-.048828 1.71679688l-2.587891 3.9511719h-5.3027342l-2.5878907-3.9511719c.312912-.5239346.2920938-1.19195987-.0507812-1.71679688-.292995-.44805-.7795174-.72756974-1.3027344-.74609374zm-1.2070313 8.66601562h15.7636718c.468533 0 .845703.3771704.845703.8457031v9.5253909c0 .468532-.37717.845703-.845703.845703h-15.7636718c-.468532 0-.8457031-.377171-.8457031-.845703v-9.5253909c0-.4685327.3771712-.8457031.8457031-.8457031z" fill="#fff" stroke-linecap="square" stroke-width="1.491364"/><path d="m3.7531333 8.0473879h15.7641057c.468533 0 .845727.3771941.845727.8457268v9.5250903c0 .468532-.377194.845726-.845727.845726h-15.7641057c-.468532 0-.845726-.377194-.845726-.845726v-9.5250903c0-.4685327.377194-.8457268.845726-.8457268z" fill="#fff" opacity=".384615" stroke-linecap="square" stroke-width="1.543"/></g></svg>

<?xml version="1.0" encoding="UTF-8" standalone="no"?>
<!-- Created with Inkscape (http://www.inkscape.org/) -->

<svg
   xmlns:dc="http://purl.org/dc/elements/1.1/"
   xmlns:cc="http://creativecommons.org/ns#"
   xmlns:rdf="http://www.w3.org/1999/02/22-rdf-syntax-ns#"
   xmlns:svg="http://www.w3.org/2000/svg"
   xmlns="http://www.w3.org/2000/svg"
   xmlns:sodipodi="http://sodipodi.sourceforge.net/DTD/sodipodi-0.dtd"
   xmlns:inkscape="http://www.inkscape.org/namespaces/inkscape"
   width="22"
   height="22"
   viewBox="0 0 22 22"
   version="1.1"
   id="svg8"
   inkscape:version="0.92+devel 15690 custom"
   sodipodi:docname="glyph-television.svg">
  <defs
     id="ol-defs">
    <style
       id="current-color-scheme">      .ColorScheme-Text {
        color:#d0d0d0;
        stop-color:#d0d0d0;
      }
      .ColorScheme-Background {
        color:#212121;
        stop-color:#212121;
      }
      .ColorScheme-Highlight {
        color:#0039a9;
        stop-color:#0039a9;
      }
      .ColorScheme-ViewText {
        color:#d0d0d0;
        stop-color:#d0d0d0;
      }
      .ColorScheme-ViewBackground {
        color:#19191b;
        stop-color:#19191b;
      }
      .ColorScheme-ViewHover {
        color:#005cc7;
        stop-color:#005cc7;
      }
      .ColorScheme-ViewFocus{
        color:#002466;
        stop-color:#002466;
      }
      .ColorScheme-ButtonText {
        color:#d0d0d0;
        stop-color:#d0d0d0;
      }
      .ColorScheme-ButtonBackground {
        color:#232323;
        stop-color:#232323;                             
      }                                                 
      .ColorScheme-ButtonHover {                        
        color:#005cc7;                                  
        stop-color:#005cc7;                             
      }                                                 
      .ColorScheme-ButtonFocus{                         
        color:#0039a9;                                  
        stop-color:#0039a9;                             
      }</style>
  </defs>
  <sodipodi:namedview
     id="base"
     pagecolor="#002266"
     bordercolor="#ffffff"
     borderopacity="0.46666667"
     inkscape:pageopacity="0"
     inkscape:pageshadow="2"
     inkscape:zoom="13.081476"
     inkscape:cx="16.621911"
     inkscape:cy="12.794693"
     inkscape:document-units="px"
     inkscape:current-layer="svg8"
     inkscape:document-rotation="0"
     showgrid="false"
     inkscape:showpageshadow="false"
     borderlayer="true"
     units="px"
     fit-margin-top="0"
     fit-margin-left="0"
     fit-margin-right="0"
     fit-margin-bottom="0"
     inkscape:window-width="1920"
     inkscape:window-height="1051"
     inkscape:window-x="0"
     inkscape:window-y="0"
     inkscape:window-maximized="1" />
  <metadata
     id="metadata5">
    <rdf:RDF>
      <cc:Work
         rdf:about="">
        <dc:format>image/svg+xml</dc:format>
        <dc:type
           rdf:resource="http://purl.org/dc/dcmitype/StillImage" />
        <dc:title></dc:title>
      </cc:Work>
    </rdf:RDF>
  </metadata>
  <g
     id="g4292"
     inkscape:label="#glyph"
     transform="translate(-0.55273419,0.62742086)">
    <path
       id="rect4264"
       d="m 4.9609375,-0.61914062 c -0.318972,-0.01097 -0.6325434,0.0747529 -0.8964844,0.24804687 -0.722976,0.474439 -0.911217,1.46492185 -0.421875,2.21289065 0.343915,0.5245387 0.9490345,0.809834 1.5546875,0.7324219 L 7.3085938,5.7949219 H 1.8203125 c -0.702573,0 -1.26757813,0.5669581 -1.26757812,1.2695312 V 20.095703 c 0,0.702573 0.56500512,1.269531 1.26757812,1.269531 H 21.283203 c 0.702573,0 1.269531,-0.566958 1.269531,-1.269531 V 7.0644531 c 0,-0.7025731 -0.566958,-1.2695312 -1.269531,-1.2695312 H 15.796875 L 17.90625,2.5742188 C 18.512519,2.6524097 19.118649,2.3670164 19.462891,1.8417969 19.951897,1.0933303 19.76272,0.10271525 19.039062,-0.37109375 18.3152,-0.84440575 17.331926,-0.62065388 16.841797,0.12695312 16.498921,0.65179013 16.480056,1.3198153 16.792969,1.84375 L 14.205078,5.7949219 H 8.9023438 L 6.3144531,1.84375 C 6.6273651,1.3198154 6.6065469,0.65179013 6.2636719,0.12695312 5.9706769,-0.32109688 5.4841545,-0.60061662 4.9609375,-0.61914062 Z M 3.7539062,8.046875 H 19.517578 c 0.468533,0 0.845703,0.3771704 0.845703,0.8457031 v 9.5253909 c 0,0.468532 -0.37717,0.845703 -0.845703,0.845703 H 3.7539062 c -0.468532,0 -0.8457031,-0.377171 -0.8457031,-0.845703 V 8.8925781 c 0,-0.4685327 0.3771712,-0.8457031 0.8457031,-0.8457031 z"
       style="opacity:1;vector-effect:none;fill:#ffffff;stroke-width:1.49136364;stroke-linecap:square"
       inkscape:connector-curvature="0"
       inkscape:label="#tv" />
    <path
       inkscape:connector-curvature="0"
       id="rect4284"
       d="M 3.7531333,8.0473879 H 19.517239 c 0.468533,0 0.845727,0.3771941 0.845727,0.8457268 v 9.5250903 c 0,0.468532 -0.377194,0.845726 -0.845727,0.845726 H 3.7531333 c -0.468532,0 -0.845726,-0.377194 -0.845726,-0.845726 V 8.8931147 c 0,-0.4685327 0.377194,-0.8457268 0.845726,-0.8457268 z"
       style="opacity:0.38461537;vector-effect:none;fill:#ffffff;stroke-width:1.54299998;stroke-linecap:square"
       inkscape:label="#screen" />
  </g>
</svg>
